src/assets/icons/categories/icon-cat-tax.svg

<svg xmlns="http://www.w3.org/2000/svg" width="32" height="32" viewBox="0 0 32 32">
  <g fill="none" fill-rule="evenodd">
    <circle cx="16" cy="16" r="16" fill="#B449E7"/>
    <path fill="#FFFFFF" d="M27.0006126,24.99975 C27.2756126,24.99975 27.5006126,25.22375 27.5006126,25.49975 C27.5006126,25.77475 27.2756126,25.99975 27.0006126,25.99975 L5.00061265,25.99975 C4.72461265,25.99975 4.50061265,25.77475 4.50061265,25.49975 C4.50061265,25.22375 4.72461265,24.99975 5.00061265,24.99975 L27.0006126,24.99975 Z M24.5006126,13.99975 L26.5006126,13.99975 C26.7756126,13.99975 27.0006126,14.22275 27.0006126,14.49975 C27.0006126,14.77475 26.7756126,14.99975 26.5006126,14.99975 L26.5006126,22.99975 C26.7756126,22.99975 27.0006126,23.22375 27.0006126,23.49975 C27.0006126,23.77475 26.7756126,23.99975 26.5006126,23.99975 L24.5006126,23.99975 L24.5006126,13.99975 Z M21.5006126,13.99975 L23.5006126,13.99975 L23.5006126,23.99975 L21.5006126,23.99975 C21.2246126,23.99975 21.0006126,23.77475 21.0006126,23.49975 C21.0006126,23.22375 21.2246126,22.99975 21.5006126,22.99975 L21.5006126,14.99975 C21.2246126,14.99975 21.0006126,14.77475 21.0006126,14.49975 C21.0006126,14.22275 21.2246126,13.99975 21.5006126,13.99975 Z M8.50061265,13.99975 L10.5006126,13.99975 C10.7756126,13.99975 11.0006126,14.22275 11.0006126,14.49975 C11.0006126,14.77475 10.7756126,14.99975 10.5006126,14.99975 L10.5006126,22.99975 C10.7756126,22.99975 11.0006126,23.22375 11.0006126,23.49975 C11.0006126,23.77475 10.7756126,23.99975 10.5006126,23.99975 L8.50061265,23.99975 L8.50061265,13.99975 Z M5.50061265,13.99975 L7.50061265,13.99975 L7.50061265,23.99975 L5.50061265,23.99975 C5.22461265,23.99975 5.00061265,23.77475 5.00061265,23.49975 C5.00061265,23.22375 5.22461265,22.99975 5.50061265,22.99975 L5.50061265,14.99975 C5.22461265,14.99975 5.00061265,14.77475 5.00061265,14.49975 C5.00061265,14.22275 5.22461265,13.99975 5.50061265,13.99975 Z M16.5006126,13.99975 L18.5006126,13.99975 C18.7756126,13.99975 19.0006126,14.22275 19.0006126,14.49975 C19.0006126,14.77475 18.7756126,14.99975 18.5006126,14.99975 L18.5006126,22.99975 C18.7756126,22.99975 19.0006126,23.22375 19.0006126,23.49975 C19.0006126,23.77475 18.7756126,23.99975 18.5006126,23.99975 L16.5006126,23.99975 L16.5006126,13.99975 Z M13.5006126,13.99975 L15.5006126,13.99975 L15.5006126,23.99975 L13.5006126,23.99975 C13.2246126,23.99975 13.0006126,23.77475 13.0006126,23.49975 C13.0006126,23.22375 13.2246126,22.99975 13.5006126,22.99975 L13.5006126,14.99975 C13.2246126,14.99975 13.0006126,14.77475 13.0006126,14.49975 C13.0006126,14.22275 13.2246126,13.99975 13.5006126,13.99975 Z M5.00061265,12.99975 C4.78661265,12.99975 4.59761265,12.86475 4.52761265,12.66175 C4.45761265,12.46075 4.52361265,12.23575 4.69261265,12.10475 L15.7246126,3.10575 C15.9046126,2.96475 16.1596126,2.96475 16.3406126,3.10575 L27.3096126,12.10575 C27.4776126,12.23775 27.5426126,12.46175 27.4736126,12.66275 C27.4026126,12.86475 27.2136126,12.99975 27.0006126,12.99975 L5.00061265,12.99975 Z"/>
  </g>
</svg>

<svg xmlns="http://www.w3.org/2000/svg" viewBox="0 0 32 32"><g fill="none" fill-rule="evenodd"><circle cx="16" cy="16" r="16" fill="#B449E7"/><path fill="#FFFFFF" d="M27 25a.5.5 0 0 1 0 1H5a.5.5 0 0 1 0-1h22zm-2.5-11h2a.5.5 0 0 1 0 1v8a.5.5 0 0 1 0 1h-2V14zm-3 0h2v10h-2a.5.5 0 0 1 0-1v-8a.5.5 0 0 1 0-1zm-13 0h2a.5.5 0 0 1 0 1v8a.5.5 0 0 1 0 1h-2V14zm-3 0h2v10h-2a.5.5 0 0 1 0-1v-8a.5.5 0 0 1 0-1zm11 0h2a.5.5 0 0 1 0 1v8a.5.5 0 0 1 0 1h-2V14zm-3 0h2v10h-2a.5.5 0 0 1 0-1v-8a.5.5 0 0 1 0-1zM5 13a.5.5 0 0 1-.3-.9l11.02-9a.5.5 0 0 1 .62 0l10.97 9a.5.5 0 0 1-.3.9H5z"/></g></svg>
